X:391
T: Xiao nuxu
N: C1426
O: China,Ningxia, Guyuan
S: I, 183]
R: Xiaodiao. Fun ku]
M: 2/4
L: 1/16
K: F
d4dfdc | A2cAG3A | d4dfdc | A4A4 |
A2Acd2dc | AAcdA4 | c2cAG3F | D8 |
A2Acd2dc | AAcdA4 | c2cAG3F | D8

@@@ Tune index: 6392
